X: 177
T: Glass Of Beer
R: reel
M: C|
L: 1/8
K:Bmin
|:"Bm"fB (3BBB fBaB|fB (3BBB "A"edce|"Bm"fB (3BBB ~f3 e|1 "D"dfaf "A"e2 de:|2 "D"dfaf "A"e2fe||
|:"D"dcde ~f3 e|defd "A"edBA|"D"dcde ~f3 e|1dfaf "A" e2fe:|2 dfaf "A"e2de|]


